X:5095
T:Hunker Slide
M:12/8
R:Slide
L:1/8
Q:210
C:Aidan Crossey
K:G
|:G2A BAG F2A D2A|G2A BAG F2D DEF|
G2A BAG F2A D2A|ded cAF G3 G3:||
|:G2A BAG d2G B2G|G2A BAG A2D F2D|
G2A BAG d2G B2G|1 ABc def gfe dcB:||
2 ABc def g3 g3|
